X:1
%
T:Sail Her ower da Raft Trees
M:C
L:1/8
B:Anderson & Swing - Haand Me Doon da Fiddle (1978)
R:Shetland Reel
K:G
(D2|:G2) (BG) AGB(G|DG)BG G(gfg)|G2 (BG) AGB(G|G,A,)B,C D(cBA)|
G2 (BG) AGB(G|DG)BG G(gfg)|(3ddd [df]d d2 (cB)|AGAB cBAF-:|
|:G2 gg gage|(3ddd [df]d d(gfe)|(3ddd [df]d d2 cB|AGAB cBAF:|]

